X:19219
T:York Winter Assemblies. GS.097
M:2/4
L:1/8
Q:200
S:George Spencer m/s, Leeds,1831
R:Misc.
O:England
A:Leeds
H:1831
Z:vmp.Cherri Graebe
K:D Major
D | DFAd | A2 BA | A/2G/2F/2E/2 DA, | EDDA, | DFAd | A2 BA | A/2G/2F/2E/
2 DC | E2 D ||! A |
d2 AA | f2dd | c/2d/2e/2f/2 gf | f2 eA |  d2 AA | f2 dd |
c/2d/2/e/2f/2 gc | e2d ||! A | A2 GF | 
d2cB | AGFE | D/2C/2D/2E/2 DF | A2 GF | d2 cB | AGFE | DFD ||


